Papirus-Dark/16x16/actions/path-mask-edit.svg

<?xml version="1.0" encoding="UTF-8" standalone="no"?>
<svg xmlns:osb="http://www.openswatchbook.org/uri/2009/osb" xmlns:dc="http://purl.org/dc/elements/1.1/" xmlns:cc="http://creativecommons.org/ns#" xmlns:rdf="http://www.w3.org/1999/02/22-rdf-syntax-ns#" xmlns:svg="http://www.w3.org/2000/svg" xmlns="http://www.w3.org/2000/svg" width="16" height="16" viewBox="0 0 16 16" id="svg6394" version="1.1">
    <defs id="defs6396">
        <linearGradient id="linearGradient19282" osb:paint="solid" gradientTransform="matrix(-0.40801424,2.7359005,1.4465395,0.18903615,2588.4859,828.26016)">
            <stop style="stop-color:#ffffff;stop-opacity:1;" offset="0" id="stop19284"/>
        </linearGradient>
        <linearGradient id="linearGradient19282-3" osb:paint="solid" gradientTransform="matrix(-2.7359006,0.40801425,-0.18903616,-1.4465395,-804.26018,-2564.486)">
            <stop style="stop-color:#ffffff;stop-opacity:1;" offset="0" id="stop19284-6"/>
        </linearGradient>
        <linearGradient gradientTransform="matrix(-2.73658,0.4081035,-0.1890831,-1.446856,-1254.4599,-3933.7766)" osb:paint="solid" id="linearGradient19282-36">
            <stop id="stop19284-7" offset="0" style="stop-color:#666666;stop-opacity:1;"/>
        </linearGradient>
    </defs>
    <metadata id="metadata6399">
        <rdf:RDF>
            <cc:Work rdf:about="">
                <dc:format>
                    image/svg+xml
                </dc:format>
                <dc:type rdf:resource="http://purl.org/dc/dcmitype/StillImage"/>
                <dc:title/>
            </cc:Work>
        </rdf:RDF>
    </metadata>
    <path id="circle7571" d="M 14.501953 0.94726562 C 13.82043 0.94726562 13.251772 1.4054309 13.070312 2.0292969 C 7.7439698 3.1298008 3.033619 6.6879877 2.0859375 13.017578 C 1.472135 13.204999 1.0214844 13.771241 1.0214844 14.447266 C 1.0214844 15.275693 1.692332 15.947266 2.5195312 15.947266 C 3.3467307 15.947266 4.0175781 15.275693 4.0175781 14.447266 C 4.0175781 13.82095 3.6343246 13.285126 3.0898438 13.060547 C 3.4626152 10.685412 4.3887728 8.7514013 5.6933594 7.2226562 C 5.8679972 7.0180115 6.0504752 6.8229992 6.2382812 6.6328125 C 6.0514844 6.8239749 5.8681388 7.0179261 5.6933594 7.2226562 C 7.0931669 8.6484163 7.9772529 10.147501 8.1972656 11.359375 C 8.4216518 12.595325 8.1083884 13.644136 7.2128906 14.541016 L 7.9179688 15.248047 C 9.01945 14.144927 9.4545586 12.693737 9.1796875 11.179688 C 8.9094791 9.6912783 7.87161 8.0239339 6.3671875 6.4960938 C 6.5383347 6.3284761 6.7195507 6.1717546 6.9003906 6.015625 C 8.3699981 7.4254549 9.8588989 8.3033242 11.292969 8.5644531 C 12.80477 8.8397331 14.252035 8.4039002 15.353516 7.3007812 L 14.648438 6.59375 C 13.75289 7.490631 12.704817 7.8047991 11.470703 7.5800781 C 10.32983 7.3723391 9.0261604 6.6388748 7.6914062 5.3867188 C 9.2736974 4.2408752 11.138713 3.4678944 13.126953 3.0410156 C 13.356607 3.5742003 13.885301 3.9472656 14.501953 3.9472656 C 15.329152 3.9472656 16 3.2756926 16 2.4472656 C 16 1.6188386 15.329152 0.94726562 14.501953 0.94726562 z M 7.6542969 5.4160156 C 7.4026258 5.5996295 7.1582323 5.791242 6.921875 5.9941406 C 7.1580732 5.7912926 7.4028598 5.5996001 7.6542969 5.4160156 z " style="opacity:0.72000002;fill:#ffffff;fill-opacity:1"/>
</svg>

<?xml version="1.0" encoding="UTF-8" standalone="no"?>
<svg id="svg6394" xmlns:rdf="http://www.w3.org/1999/02/22-rdf-syntax-ns#" xmlns="http://www.w3.org/2000/svg" xmlns:osb="http://www.openswatchbook.org/uri/2009/osb" height="16" width="16" version="1.1" xmlns:cc="http://creativecommons.org/ns#" viewBox="0 0 16 16" xmlns:dc="http://purl.org/dc/elements/1.1/">
 <metadata id="metadata6399">
  <rdf:RDF>
   <cc:Work rdf:about="">
    <dc:format>image/svg+xml</dc:format>
    <dc:type rdf:resource="http://purl.org/dc/dcmitype/StillImage"/>
    <dc:title/>
   </cc:Work>
  </rdf:RDF>
 </metadata>
 <path id="circle7571" opacity="1" fill="#d3dae3" d="m14.502 0.94727c-0.682 0-1.25 0.45813-1.432 1.082-5.326 1.1005-10.036 4.6587-10.984 10.989-0.6139 0.187-1.0645 0.753-1.0645 1.429 0 0.829 0.6708 1.5 1.498 1.5s1.4981-0.671 1.4981-1.5c0-0.626-0.3833-1.162-0.9278-1.386 0.3728-2.376 1.299-4.3096 2.6036-5.8383 0.1746-0.2047 0.3571-0.3997 0.5449-0.5899-0.1868 0.1912-0.3702 0.3851-0.5449 0.5899 1.3998 1.4257 2.2839 2.9253 2.5039 4.1363 0.2244 1.236-0.0889 2.285-0.9844 3.182l0.7051 0.707c1.1014-1.103 1.5366-2.554 1.2617-4.068-0.2702-1.4887-1.3081-3.1561-2.8125-4.6839 0.1711-0.1676 0.3524-0.3243 0.5332-0.4805 1.4696 1.4099 2.9585 2.2877 4.3926 2.5489 1.512 0.2752 2.959-0.1606 4.061-1.2637l-0.706-0.707c-0.895 0.8968-1.943 1.211-3.177 0.9863-1.141-0.2078-2.4448-0.9412-3.7796-2.1934 1.5823-1.1458 3.4476-1.9188 5.4356-2.3457 0.23 0.5332 0.758 0.9063 1.375 0.9063 0.827 0 1.498-0.6716 1.498-1.5 0-0.8285-0.671-1.5-1.498-1.5zm-6.8477 4.4687c-0.2517 0.1836-0.4961 0.3752-0.7324 0.5781 0.2362-0.2028 0.481-0.3945 0.7324-0.5781z"/>
</svg>
